X:3845
L:1/8
Q:1/2=60
M:2/2
K:G
 d>B | G2 G>G G>BA>c | B2 B>B B>dc>e | d>gf>e d>cB>A | G2 G>G G2 d>B | G2 G>G G>BA>c | 
 B2 B>B B>dc>e | d>gf>e d>cB>A | G2 G>G G2 :: B>c | d2 d>d d>fg>e | d2 d>d d2 B>c | d2 d>d d2 g>f | 
 d2 d>d d2 B>c | d>BG>B d>BG>B | c>AF>A c>AF>A | d>BG>B d>BG>B | A2 A>A A2 d>B | G2 G>G G>BA>d | 
 B2 B>B B>dc>e | d>gf>e d>cB.A | G2 G>G G2 :|

